X:174
T:Shannonaires' Jig
T:Silver Vale, The
R:jig
C:Pete Kelly claims he composed it, but this is doubtful
H:See also #449
Z:id:hn-jig-174
M:6/8
K:D
d2F AGF | dAF AFD | ~A3 GFE | A2E GFE |
DFA GAB | Adc d2e | fed cBA |1 Gfe d3 :|2 Gfe d2e ||
|: ~f3 ~a3 | ~f3 ded | ~e3 ~g3 | efd cBA |
~f3 ~g3 | ~a3 bag | fed cBA |1 Gfe d2e :|2 Gfe d3 ||
P:variations
|: ~d3 AGF | dAA AGF | ~E3 GFE | A,CE GFE |
DFA GAB | Ace d2e | fed cBA |1 GFE D3 :|2 GFE D2e ||
fdf ~a3 | faf def | ede ~g3 | efd cBA |
~f3 ~g3 | ~a3 bag | fed cBA |1 GFE D2e :|2 GFE D3 ||
P:more variations
|: dFF AGF | dFF AGF | A,CE GFE | A,CE GFE |
DFA GBd | Adc d2e | fed cBA |1 GFE D3 :|2 GFE D2e ||
|: fef a^ga | fef def | ~e3 gfg | efd cde |
fef gfg | a^ga ba=g | fed cBA |1 GFE D2e :|2 GFE D3 ||

